X: 76
T:The Milke-Mayds Bobb
M:6/8
L:1/8
Q:110
R:Jig
K:G
dde ddB|cAc B2G|dde e>ga|geg f2d||
dgd e>cA|eae f>ed|dgd g>ab|b>ag g3||

